X: 202
U: p=!crescendo(!
U: P=!crescendo)!
M: 3/4
L: 1/8
K: Eb
(EF) & (EF) | G2G3A & E2E3F | c2B3G & A2G3E | (B> A) A2B2 & (G> F) F2D2 | G4 & E4 ||
(EF) & (EF) | G2G3A & E2E3F | c2B3G & A2G3E | (B> A) A2B2 & (G> F) F2D2 | G4 & E4 ||
(B>_A) & (B>F) | G> G G3 A & E> E E3F | c2B3G & A2G3E | (B> A) A2B2 & (G> F) F2D2 | G4 & E4 ||


